usr/share/icons/biglinux-icons-material-dark/22/actions/kontact-import-wizard.svg

<svg xmlns="http://www.w3.org/2000/svg" viewBox="0 0 22 22">
<defs>
<style id="current-color-scheme" type="text/css">
.ColorScheme-Text{color:#dedede}
</style>
</defs>
<path d="M5 3v2H3v3h2v6H3v3h2v2h7v-1H9V4h9v11h-4.3l2.3-2.3-.7-.7-3.5 3.5 3.5 3.5.7-.7-2.3-2.3H19V3zm1 1h2v14H6z" class="ColorScheme-Text" style="fill:currentColor;fill-opacity:1;stroke:none"/>
</svg>

<svg viewBox="0 0 22 22" version="1.1" xmlns="http://www.w3.org/2000/svg">
    <defs>
        <style type="text/css" id="current-color-scheme">
            .ColorScheme-Text {
                color:#dedede;
            }
        </style>
    </defs>
    <path class="ColorScheme-Text" style="fill:currentColor; fill-opacity:1; stroke:none" d="M 5 3 L 5 5 L 3 5 L 3 8 L 5 8 L 5 14 L 3 14 L 3 17 L 5 17 L 5 19 L 12 19 L 12 18 L 9 18 L 9 4 L 18 4 L 18 15 L 13.7 15 L 16 12.7 L 15.3 12 L 11.8 15.5 L 15.3 19 L 16 18.3 L 13.7 16 L 19 16 L 19 3 L 5 3 z M 6 4 L 8 4 L 8 18 L 6 18 L 6 4 z " />
</svg>
